src/icons/svg/menu.svg

<svg class="icon" viewBox="0 0 1024 1024" xmlns="http://www.w3.org/2000/svg" width="250" height="250"><defs><style/></defs><path d="M249.792 530.56h774.016v-49.92H249.792v49.92zm0-349.504v49.92h774.016v-49.92H249.792zm0 649.152h774.016v-49.92H249.792v49.92zM.128 530.56h124.864v-49.92H.128v49.92zm0-299.584h124.864v-49.92H.128v49.92zm0 599.232h124.864v-49.92H.128v49.92z"/></svg>

<?xml version="1.0" standalone="no"?><!DOCTYPE svg PUBLIC "-//W3C//DTD SVG 1.1//EN" "http://www.w3.org/Graphics/SVG/1.1/DTD/svg11.dtd"><svg t="1614340957222" class="icon" viewBox="0 0 1024 1024" version="1.1" xmlns="http://www.w3.org/2000/svg" p-id="25896" width="250" height="250" xmlns:xlink="http://www.w3.org/1999/xlink"><defs><style type="text/css"></style></defs><path d="M249.792 530.56l774.016 0L1023.808 480.64 249.792 480.64 249.792 530.56zM249.792 181.056l0 49.92 774.016 0 0-49.92L249.792 181.056zM249.792 830.208l774.016 0 0-49.92L249.792 780.288 249.792 830.208zM0.128 530.56l124.864 0L124.992 480.64 0.128 480.64 0.128 530.56zM0.128 230.976l124.864 0 0-49.92L0.128 181.056 0.128 230.976zM0.128 830.208l124.864 0 0-49.92L0.128 780.288 0.128 830.208z" p-id="25897"></path></svg>
